src/pos-icons/gamepad.svg

<svg height="24" viewBox="0 0 24 24" width="24" xmlns="http://www.w3.org/2000/svg"><path d="m16.5 9-3 3 3 3h5.5v-6m-13 7.5v5.5h6v-5.5l-3-3m-4.5-4.5h-5.5v6h5.5l3-3m4.5-4.5v-5.5h-6v5.5l3 3z"/></svg>

<?xml version="1.0" encoding="UTF-8"?><!DOCTYPE svg PUBLIC "-//W3C//DTD SVG 1.1//EN" "http://www.w3.org/Graphics/SVG/1.1/DTD/svg11.dtd"><svg xmlns="http://www.w3.org/2000/svg" xmlns:xlink="http://www.w3.org/1999/xlink" version="1.1" id="mdi-gamepad" width="24" height="24" viewBox="0 0 24 24"><path d="M16.5,9L13.5,12L16.5,15H22V9M9,16.5V22H15V16.5L12,13.5M7.5,9H2V15H7.5L10.5,12M15,7.5V2H9V7.5L12,10.5L15,7.5Z" /></svg>
